X: 18362
T: Humours Of Whiskey, The
R: slip jig
M: 9/8
K: Dmajor
G2A Bee Bee|GFG BGB AFD|G2A Bee Bee|dcd (3ABA G FED:|
|:d2e fdf ecA|dcd fdf gfe|1 d2e fdf ecA|Bcd (3ABA G FED:|
[2 d2e fga ecA|Bcd (3ABA G FED||

